images/icons/international.svg

<svg xmlns="http://www.w3.org/2000/svg" viewBox="0 0 30 30">
    <path fill="white" d="M 11.990234 2.9980469 C 11.731734 2.9980469 11.472891 3.0974219 11.275391 3.2949219 L 9.0292969 5.5410156 L 4.09375 4.7617188 L 3.4238281 5.4316406 L 7.0605469 7.5097656 L 5.3261719 9.2441406 L 3.515625 8.7910156 L 3 9.3066406 L 6.6933594 13 L 7.2089844 12.484375 L 6.7558594 10.673828 L 8.4882812 8.9394531 L 10.566406 12.576172 L 11.236328 11.90625 L 10.458984 6.9707031 L 12.705078 4.7246094 C 13.100078 4.3296094 13.100078 3.6899219 12.705078 3.2949219 C 12.507578 3.0974219 12.248734 2.9980469 11.990234 2.9980469 z M 15 3 C 14.938 3 14.879359 3.0087656 14.818359 3.0097656 C 15.046359 3.6567656 15.045359 4.3627656 14.818359 5.0097656 C 14.878359 5.0087656 14.939 5 15 5 C 17.105 5 19.056922 5.6564844 20.669922 6.7714844 L 20 7 L 20 8 L 19 8 L 18 9 L 18 11 L 20 10 L 23 11 L 22 13 L 20 12 L 18 12 L 16 14 L 16 16 L 18 18 L 20 18 L 21 20 L 18.894531 24.210938 C 17.696531 24.718937 16.381 25 15 25 C 14.632 25 14.269109 24.9765 13.912109 24.9375 L 11.964844 23.035156 L 12 19 L 9 16 L 6 16 L 5.2421875 17.162109 C 5.0881875 16.464109 5 15.743 5 15 C 5 14.722 5.0199688 14.449734 5.0429688 14.177734 L 3.2871094 12.421875 C 3.1031094 13.252875 3 14.114 3 15 C 3 21.617 8.383 27 15 27 C 21.617 27 27 21.617 27 15 C 27 8.383 21.617 3 15 3 z"></path>
</svg>

<svg xmlns="http://www.w3.org/2000/svg" viewBox="0 0 30 30"><path fill="#fff" d="M11.99 2.998c-.258 0-.517.099-.715.297l-2.246 2.246-4.936-.779-.67.67 3.637 2.078-1.734 1.734-1.811-.453-.516.516 3.693 3.693.516-.516-.453-1.811 1.732-1.734 2.078 3.637.67-.67-.777-4.936 2.246-2.246c.395-.395.395-1.035 0-1.43-.197-.197-.456-.297-.715-.297zm3.01.002l-.182.01c.228.647.227 1.353 0 2l.182-.01c2.105 0 4.057.656 5.67 1.771l-.67.229v1h-1l-1 1v2l2-1 3 1-1 2-2-1h-2l-2 2v2l2 2h2l1 2-2.105 4.211c-1.198.508-2.514.789-3.895.789-.368 0-.731-.023-1.088-.063l-1.947-1.902.035-4.035-3-3h-3l-.758 1.162c-.154-.698-.242-1.419-.242-2.162 0-.278.02-.55.043-.822l-1.756-1.756c-.184.831-.287 1.692-.287 2.578 0 6.617 5.383 12 12 12s12-5.383 12-12-5.383-12-12-12z"/></svg>
